X: 116
T: Song of the Strong Heart Society (a)
C: Teton Sioux band 1911-1914
N: Derived from sioux116.krn
O: South Dakota, U.S.A.
N: Teton Sioux Music by Frances Densmore, 1918
Z: transcribed to **kern format by Craig Sapp
L: 1/8
M: 2/4
Q: 1/4=58
K: Eb clef=bass
%%linebreak <none>
F< F F/ E3/ [I:setbarnb 2]| 
E< EB,2 | 
C< B,B,2 ||  
[M:3/4]C< B,B,2B,3/ B,/ | 
E> FE2E3/ B,/ | 
E< B,B,2B,3/ F,/ | 
G,< F, F, E,/ D,/E,2 ||  
[M:2/4]E, F,/ E,/ E, D, | 
E,< D,B,,2 | 
B,,3B,, ||  
[M:3/4]B,,4B,3/ B,/ | 
E> E E E E E | 
(E< B,) B, B, B, B, ||  
[M:2/4](B,/ F, G,/)F,2 | 
E,> D,E,2 | 
E, F,/ E,/ E, D, | 
E,< D, B,,3/ B,,/ | 
B,,3B,, | 
B,,4 |]  



